public/avatar/item0/15.svg

<svg xmlns:xlink="http://www.w3.org/1999/xlink" height="58.65" width="49.15" xmlns="http://www.w3.org/2000/svg"><use height="35.65" transform="translate(10.05 19.55)" width="28" xlink:href="#a"/><defs><g id="a"><path d="M11.1 9.6q3.05 4.4 2.15 11.2-.8 6.4-4.5 11.2-3.9 5.1-8.7 5.1-4.8 0-8.75-5.1-3.75-4.8-4.6-11.2-.95-6.8 2-11.2Q-7.85 4.5-.1 4.5q7.7 0 11.2 5.1" fill="#282639" fill-opacity=".302" fill-rule="evenodd" transform="translate(14.05 -1.45)"/><path d="M11.1 7.05q3.05 4.4 2.15 11.2-.8 6.4-4.5 11.2-3.9 5.1-8.7 5.1-4.8 0-8.75-5.1-3.75-4.8-4.6-11.2-.95-6.8 2-11.2 3.45-5.1 11.2-5.1 7.7 0 11.2 5.1" fill="#e4d4ae" fill-rule="evenodd" transform="translate(14.05 -1.45)"/><path d="M11.1 7.05Q7.6 1.95-.1 1.95q-7.75 0-11.2 5.1-2.95 4.4-2 11.2.85 6.4 4.6 11.2 3.95 5.1 8.75 5.1t8.7-5.1q3.7-4.8 4.5-11.2.9-6.8-2.15-11.2Z" fill="none" stroke="#423f38" stroke-linecap="round" stroke-linejoin="round" transform="translate(14.05 -1.45)"/><path d="m11.6 9.6.4 2-.05 7.95q-1.45.15-2.6-1.6l-1.1-1.5q-.55-.9-.25-1.85l2.2-2.15q1.4-1.25 1.4-2.85M-5.1 29.25q-.3-1.35 1.15-2.05 1.3-.65 2.5-.25-.15 2.25.65 6.45-1.45.3-2.8-.85-1.35-1.15-1.15-2.65l-.35-.65m8.15-4.2q-2.15.35-5.5-2.45l-.3.15q-.5-2.55 3.95-2.3.15.75 1.05 2.3.75 1.4.8 2.3M-3 9.85l-4.9-.25q-.6-.45-.6-2.35 0-1.9.85-1.75-.1.55.35 1.35l.65.65.25.7q.9 1.05 3.15 1.25l.25.4" fill="#d4bd8b" fill-rule="evenodd" transform="translate(14.05 -1.45)"/><path d="M1.25 15.35 4 13.7h3.4q2.1.1 2.95 1.55.6 1.05-.05 2.6-.6 1.3-1.6 2.1-1.05.8-3.2.8-2 0-3.3-.7-2.3-1.25-.95-4.7M5.75 5.1l.35-.25Q7.7 5.95 8 7.7l.9 2.05q.65 1.35.55 1.95-1.55-.75-6.3-.85Q.4 10.7.7 9.8q.35-1.15 2.65-1 .4-.75 2.25-1.35 0-2.05.15-2.35M-10.9 16.7q.75-2.65 6-2.1l1.4.1h1.6l.25 3.25q-.2.6-1.85 1.65-1.8 1.25-2.25 1.4l-2.65-.15q-1.1-.45-1.9-1.65-.9-1.35-.6-2.5" fill="#d4bd8b" fill-rule="evenodd" transform="translate(14.05 -1.45)"/><path d="M-2.85 13.65q1.5 1.25 1.05 3.15-.45 1.85-2.3 2.5-1.8.6-4.1-.7-2.3-1.25-2.3-2.7 0-1.75 3.15-2.6 3.05-.85 4.5.35m5.5 0q1.4-1.2 4.5-.35 3.15.85 3.15 2.6 0 1.35-2.3 2.65-2.35 1.35-4.1.75-1.85-.65-2.25-2.5-.5-1.9 1-3.15" fill-rule="evenodd" transform="translate(14.05 -1.45)"/><path d="m0 12.35-6.9-1.75 6.7-.4 7.05.5L0 12.35m5.6 11q1.5 1.1 2.75 3.25L7 28.2q-1-2.25-2.25-4l-2-2.95 2.85 2.1m-11.1 0 2.85-2.1-2 2.95q-1.25 1.75-2.25 4l-1.35-1.6Q-7 24.45-5.5 23.35" fill="#c3372c" fill-rule="evenodd" transform="translate(14.05 -1.45)"/><path d="M.95 21.65q0 .85-.8.85t-.8-.85q0-.8.8-.8t.8.8m-2.5 4.25q0 .8-.8.8t-.8-.8q0-.8.8-.8t.8.8M-1.8 29q0 .85-.8.85t-.8-.85q0-.8.8-.8t.8.8m.4 3q0 .85-.8.85T-3 32q0-.8.8-.8t.8.8m3.25-6.1q0-.8.8-.8t.8.8q0 .8-.8.8t-.8-.8M-.95 8.45q0-.8.8-.8t.8.8q0 .8-.8.8t-.8-.8m3.5 0q0-.8.8-.8t.8.8q0 .8-.8.8t-.8-.8m3.1.4q0-.8.85-.8.8 0 .8.8t-.8.8q-.85 0-.85-.8m.25-3q0-.8.85-.8.8 0 .8.8t-.8.8q-.85 0-.85-.8m-8.5 2.6q0 .8-.8.8t-.8-.8q0-.8.8-.8t.8.8m-3.1.4q0 .8-.8.8-.85 0-.85-.8t.85-.8q.8 0 .8.8m-.25-3q0 .8-.8.8-.85 0-.85-.8t.85-.8q.8 0 .8.8M2.1 29q0-.8.8-.8t.8.8q0 .85-.8.85T2.1 29m-.35 3q0-.8.8-.8t.8.8q0 .85-.8.85t-.8-.85M1.3 12.05l-3.05-2.7L5 14.5q5.75 5.4 6.9 9.4l-.85 1.35-4.4-7.35Q4.7 15.3 1.3 12.05" fill-rule="evenodd" transform="translate(14.05 -1.45)"/><path d="m10 20.1.75.75L8.6 22.6l-.75-1L10 20.1" fill="#d4bd8b" fill-rule="evenodd" transform="translate(14.05 -1.45)"/><path d="M7.75 19.7q-.3-.45-.65-.45l-.95.1 1.35-1 .25 1.35" fill-rule="evenodd" transform="translate(14.05 -1.45)"/></g></defs></svg>

<?xml version="1.0" encoding="UTF-8" standalone="no"?>
<svg xmlns:xlink="http://www.w3.org/1999/xlink" height="58.65px" width="49.15px" xmlns="http://www.w3.org/2000/svg">
  <g transform="matrix(1.0, 0.0, 0.0, 1.0, 24.1, 18.1)">
    <use height="35.65" transform="matrix(1.0, 0.0, 0.0, 1.0, -14.05, 1.45)" width="28.0" xlink:href="#shape0"/>
  </g>
  <defs>
    <g id="shape0" transform="matrix(1.0, 0.0, 0.0, 1.0, 14.05, -1.45)">
      <path d="M11.1 9.6 Q14.15 14.0 13.25 20.8 12.45 27.2 8.75 32.0 4.85 37.1 0.05 37.1 -4.75 37.1 -8.7 32.0 -12.45 27.2 -13.3 20.8 -14.25 14.0 -11.3 9.6 -7.85 4.5 -0.1 4.5 7.6 4.5 11.1 9.6" fill="#282639" fill-opacity="0.3019608" fill-rule="evenodd" stroke="none"/>
      <path d="M11.1 7.05 Q14.15 11.45 13.25 18.25 12.45 24.65 8.75 29.45 4.85 34.55 0.05 34.55 -4.75 34.55 -8.7 29.45 -12.45 24.65 -13.3 18.25 -14.25 11.45 -11.3 7.05 -7.85 1.95 -0.1 1.95 7.6 1.95 11.1 7.05" fill="#e4d4ae" fill-rule="evenodd" stroke="none"/>
      <path d="M11.1 7.05 Q7.6 1.95 -0.1 1.95 -7.85 1.95 -11.3 7.05 -14.25 11.45 -13.3 18.25 -12.45 24.65 -8.7 29.45 -4.75 34.55 0.05 34.55 4.85 34.55 8.75 29.45 12.45 24.65 13.25 18.25 14.15 11.45 11.1 7.05 Z" fill="none" stroke="#423f38" stroke-linecap="round" stroke-linejoin="round" stroke-width="1.0"/>
      <path d="M11.6 9.6 L12.0 11.6 11.95 19.55 Q10.5 19.7 9.35 17.95 L8.25 16.45 Q7.7 15.55 8.0 14.6 L10.2 12.45 Q11.6 11.2 11.6 9.6" fill="#d4bd8b" fill-rule="evenodd" stroke="none"/>
      <path d="M-5.1 29.25 Q-5.4 27.9 -3.95 27.2 -2.65 26.55 -1.45 26.95 -1.6 29.2 -0.8 33.4 -2.25 33.7 -3.6 32.55 -4.95 31.4 -4.75 29.9 L-5.1 29.25" fill="#d4bd8b" fill-rule="evenodd" stroke="none"/>
      <path d="M3.05 25.05 Q0.9 25.4 -2.45 22.6 L-2.75 22.75 Q-3.25 20.2 1.2 20.45 1.35 21.2 2.25 22.75 3.0 24.15 3.05 25.05" fill="#d4bd8b" fill-rule="evenodd" stroke="none"/>
      <path d="M-3.0 9.85 L-7.9 9.6 Q-8.5 9.15 -8.5 7.25 -8.5 5.35 -7.65 5.5 -7.75 6.05 -7.3 6.85 L-6.65 7.5 -6.4 8.2 Q-5.5 9.25 -3.25 9.45 L-3.0 9.85" fill="#d4bd8b" fill-rule="evenodd" stroke="none"/>
      <path d="M1.25 15.35 L4.0 13.7 7.4 13.7 Q9.5 13.8 10.35 15.25 10.95 16.3 10.3 17.85 9.7 19.15 8.7 19.95 7.65 20.75 5.5 20.75 3.5 20.75 2.2 20.05 -0.1 18.8 1.25 15.35" fill="#d4bd8b" fill-rule="evenodd" stroke="none"/>
      <path d="M5.75 5.1 L6.1 4.85 Q7.7 5.95 8.0 7.7 L8.9 9.75 Q9.55 11.1 9.45 11.7 7.9 10.95 3.15 10.85 0.4 10.7 0.7 9.8 1.05 8.65 3.35 8.8 3.75 8.05 5.6 7.45 5.6 5.4 5.75 5.1" fill="#d4bd8b" fill-rule="evenodd" stroke="none"/>
      <path d="M-10.9 16.7 Q-10.15 14.05 -4.9 14.6 L-3.5 14.7 -1.9 14.7 -1.65 17.95 Q-1.85 18.55 -3.5 19.6 -5.3 20.85 -5.75 21.0 L-8.4 20.85 Q-9.5 20.4 -10.3 19.2 -11.2 17.85 -10.9 16.7" fill="#d4bd8b" fill-rule="evenodd" stroke="none"/>
      <path d="M-2.85 13.65 Q-1.35 14.9 -1.8 16.8 -2.25 18.65 -4.1 19.3 -5.9 19.9 -8.2 18.6 -10.5 17.35 -10.5 15.9 -10.5 14.15 -7.35 13.3 -4.3 12.45 -2.85 13.65" fill="#000000" fill-rule="evenodd" stroke="none"/>
      <path d="M2.65 13.65 Q4.05 12.45 7.15 13.3 10.3 14.15 10.3 15.9 10.3 17.25 8.0 18.55 5.65 19.9 3.9 19.3 2.05 18.65 1.65 16.8 1.15 14.9 2.65 13.65" fill="#000000" fill-rule="evenodd" stroke="none"/>
      <path d="M0.0 12.35 L-6.9 10.6 -0.2 10.2 6.85 10.7 0.0 12.35" fill="#c3372c" fill-rule="evenodd" stroke="none"/>
      <path d="M5.6 23.35 Q7.1 24.45 8.35 26.6 L7.0 28.2 Q6.0 25.95 4.75 24.2 L2.75 21.25 5.6 23.35" fill="#c3372c" fill-rule="evenodd" stroke="none"/>
      <path d="M-5.5 23.35 L-2.65 21.25 -4.65 24.2 Q-5.9 25.95 -6.9 28.2 L-8.25 26.6 Q-7.0 24.45 -5.5 23.35" fill="#c3372c" fill-rule="evenodd" stroke="none"/>
      <path d="M0.95 21.65 Q0.95 22.5 0.15 22.5 -0.65 22.5 -0.65 21.65 -0.65 20.85 0.15 20.85 0.95 20.85 0.95 21.65" fill="#000000" fill-rule="evenodd" stroke="none"/>
      <path d="M-1.55 25.9 Q-1.55 26.7 -2.35 26.7 -3.15 26.7 -3.15 25.9 -3.15 25.1 -2.35 25.1 -1.55 25.1 -1.55 25.9" fill="#000000" fill-rule="evenodd" stroke="none"/>
      <path d="M-1.8 29.0 Q-1.8 29.85 -2.6 29.85 -3.4 29.85 -3.4 29.0 -3.4 28.2 -2.6 28.2 -1.8 28.2 -1.8 29.0" fill="#000000" fill-rule="evenodd" stroke="none"/>
      <path d="M-1.4 32.0 Q-1.4 32.85 -2.2 32.85 -3.0 32.85 -3.0 32.0 -3.0 31.2 -2.2 31.2 -1.4 31.2 -1.4 32.0" fill="#000000" fill-rule="evenodd" stroke="none"/>
      <path d="M1.85 25.9 Q1.85 25.1 2.65 25.1 3.45 25.1 3.45 25.9 3.45 26.7 2.65 26.7 1.85 26.7 1.85 25.9" fill="#000000" fill-rule="evenodd" stroke="none"/>
      <path d="M-0.95 8.45 Q-0.95 7.65 -0.15 7.65 0.65 7.65 0.65 8.45 0.65 9.25 -0.15 9.25 -0.95 9.25 -0.95 8.45" fill="#000000" fill-rule="evenodd" stroke="none"/>
      <path d="M2.55 8.45 Q2.55 7.65 3.35 7.65 4.15 7.65 4.15 8.45 4.15 9.25 3.35 9.25 2.55 9.25 2.55 8.45" fill="#000000" fill-rule="evenodd" stroke="none"/>
      <path d="M5.65 8.85 Q5.65 8.05 6.5 8.05 7.3 8.05 7.3 8.85 7.3 9.65 6.5 9.65 5.65 9.65 5.65 8.85" fill="#000000" fill-rule="evenodd" stroke="none"/>
      <path d="M5.9 5.85 Q5.9 5.05 6.75 5.05 7.55 5.05 7.55 5.85 7.55 6.65 6.75 6.65 5.9 6.65 5.9 5.85" fill="#000000" fill-rule="evenodd" stroke="none"/>
      <path d="M-2.6 8.45 Q-2.6 9.25 -3.4 9.25 -4.2 9.25 -4.2 8.45 -4.2 7.65 -3.4 7.65 -2.6 7.65 -2.6 8.45" fill="#000000" fill-rule="evenodd" stroke="none"/>
      <path d="M-5.7 8.85 Q-5.7 9.65 -6.5 9.65 -7.35 9.65 -7.35 8.85 -7.35 8.05 -6.5 8.05 -5.7 8.05 -5.7 8.85" fill="#000000" fill-rule="evenodd" stroke="none"/>
      <path d="M-5.95 5.85 Q-5.95 6.65 -6.75 6.65 -7.6 6.65 -7.6 5.85 -7.6 5.05 -6.75 5.05 -5.95 5.05 -5.95 5.85" fill="#000000" fill-rule="evenodd" stroke="none"/>
      <path d="M2.1 29.0 Q2.1 28.2 2.9 28.2 3.7 28.2 3.7 29.0 3.7 29.85 2.9 29.85 2.1 29.85 2.1 29.0" fill="#000000" fill-rule="evenodd" stroke="none"/>
      <path d="M1.75 32.0 Q1.75 31.2 2.55 31.2 3.35 31.2 3.35 32.0 3.35 32.85 2.55 32.85 1.75 32.85 1.75 32.0" fill="#000000" fill-rule="evenodd" stroke="none"/>
      <path d="M1.3 12.05 L-1.75 9.35 5.0 14.5 Q10.75 19.9 11.9 23.9 L11.05 25.25 6.65 17.9 Q4.7 15.3 1.3 12.05" fill="#000000" fill-rule="evenodd" stroke="none"/>
      <path d="M10.0 20.1 L10.75 20.85 8.6 22.6 7.85 21.6 10.0 20.1" fill="#d4bd8b" fill-rule="evenodd" stroke="none"/>
      <path d="M7.75 19.7 Q7.45 19.25 7.1 19.25 L6.15 19.35 7.5 18.35 7.75 19.7" fill="#000000" fill-rule="evenodd" stroke="none"/>
    </g>
  </defs>
</svg>
